packages/ckeditor5-icons/theme/icons/web.svg

<svg viewBox="0 0 20 20" xmlns="http://www.w3.org/2000/svg">
<path fill-rule="evenodd" clip-rule="evenodd" d="M20 10.001C20 15.5238 15.5228 20.001 10 20.001C4.47715 20.001 0 15.5238 0 10.001C0 4.47813 4.47715 0.000976562 10 0.000976562C15.5228 0.000976562 20 4.47813 20 10.001ZM10.3383 18.4944C10.2261 18.4988 10.1133 18.501 10 18.501C9.88669 18.501 9.77389 18.4988 9.66165 18.4944C8.82378 17.178 8.16996 15.563 7.78508 13.751H12.2149C11.83 15.563 11.1762 17.178 10.3383 18.4944ZM12.1529 18.226C12.824 16.8987 13.3367 15.3867 13.6498 13.751H17.6302C16.5524 15.9398 14.5606 17.5975 12.1529 18.226ZM18.199 12.251C18.3952 11.5343 18.5 10.7799 18.5 10.001C18.5 9.22206 18.3952 8.46762 18.199 7.75098H13.876C13.9576 8.48313 14 9.23474 14 10.001C14 10.7672 13.9576 11.5188 13.876 12.251H18.199ZM17.6302 6.25098C16.5524 4.06219 14.5606 2.40446 12.1529 1.77599C12.824 3.10329 13.3367 4.61529 13.6498 6.25098H17.6302ZM10.3383 1.50759C11.1762 2.82394 11.83 4.43892 12.2149 6.25098H7.78508C8.16996 4.43892 8.82378 2.82394 9.66166 1.50759C9.77389 1.50319 9.88669 1.50098 10 1.50098C10.1133 1.50098 10.2261 1.50319 10.3383 1.50759ZM7.84712 1.77599C7.17602 3.10329 6.66328 4.61529 6.35024 6.25098H2.36981C3.44757 4.06219 5.4394 2.40447 7.84712 1.77599ZM1.80098 7.75098C1.60477 8.46762 1.5 9.22206 1.5 10.001C1.5 10.7799 1.60477 11.5343 1.80098 12.251H6.12396C6.04241 11.5188 6 10.7672 6 10.001C6 9.23474 6.04241 8.48313 6.12396 7.75098H1.80098ZM2.36981 13.751C3.44757 15.9398 5.4394 17.5975 7.84712 18.226C7.17602 16.8987 6.66328 15.3867 6.35024 13.751H2.36981ZM12.4651 12.251H7.53489C7.44567 11.5237 7.39873 10.7718 7.39873 10.001C7.39873 9.2301 7.44567 8.47824 7.53489 7.75098H12.4651C12.5543 8.47824 12.6013 9.2301 12.6013 10.001C12.6013 10.7718 12.5543 11.5237 12.4651 12.251Z"/>
</svg>

<svg xmlns="http://www.w3.org/2000/svg" viewBox="0 0 20 20"><path fill-rule="evenodd" d="M20 10.001c0 5.523-4.477 10-10 10s-10-4.477-10-10 4.477-10 10-10 10 4.477 10 10m-9.662 8.493a9 9 0 0 1-.676 0c-.838-1.316-1.492-2.931-1.877-4.743h4.43c-.385 1.812-1.039 3.427-1.877 4.743m1.815-.268c.671-1.327 1.184-2.84 1.497-4.475h3.98a8.52 8.52 0 0 1-5.477 4.475m6.046-5.975a8.5 8.5 0 0 0 .301-2.25 8.5 8.5 0 0 0-.301-2.25h-4.323a20.3 20.3 0 0 1 0 4.5zm-.569-6a8.52 8.52 0 0 0-5.477-4.475c.671 1.327 1.184 2.84 1.497 4.475zm-7.292-4.743c.838 1.316 1.492 2.93 1.877 4.743h-4.43c.385-1.812 1.039-3.427 1.877-4.743a9 9 0 0 1 .676 0m-2.49.268c-.672 1.327-1.185 2.84-1.498 4.475H2.37a8.52 8.52 0 0 1 5.477-4.475M1.8 7.751a8.5 8.5 0 0 0-.301 2.25c0 .779.105 1.533.301 2.25h4.323a20.3 20.3 0 0 1 0-4.5zm.569 6a8.52 8.52 0 0 0 5.477 4.475c-.671-1.327-1.184-2.84-1.497-4.475zm10.095-1.5h-4.93a18.5 18.5 0 0 1 0-4.5h4.93a18.5 18.5 0 0 1 0 4.5" clip-rule="evenodd"/></svg>
